symbols/web/attribution/materialsymbolsrounded/attribution_wght300_20px.svg

<svg xmlns="http://www.w3.org/2000/svg" height="20" width="20"><path d="M10.021 15.312q.354 0 .625-.281t.271-.656v-2.583h.729q.166 0 .292-.125.124-.125.124-.292v-3q0-.5-.51-.76-.51-.261-1.552-.261t-1.542.261q-.5.26-.5.76v3q0 .167.125.292.125.125.292.125h.729v2.604q0 .375.281.646.282.27.636.27Zm-.042 2.605q-1.625 0-3.073-.625t-2.51-1.688q-1.063-1.062-1.688-2.51-.625-1.448-.625-3.094t.625-3.094q.625-1.448 1.688-2.51 1.062-1.063 2.51-1.688Q8.354 2.083 10 2.083t3.094.625q1.448.625 2.51 1.688 1.063 1.062 1.688 2.51.625 1.448.625 3.115 0 1.625-.625 3.073t-1.688 2.51q-1.062 1.063-2.51 1.688-1.448.625-3.115.625ZM10 16.583q2.75 0 4.667-1.916Q16.583 12.75 16.583 10t-1.916-4.667Q12.75 3.417 10 3.417T5.333 5.333Q3.417 7.25 3.417 10t1.916 4.667Q7.25 16.583 10 16.583Zm0-9.666q.458 0 .792-.334.333-.333.333-.791 0-.459-.333-.792-.334-.333-.792-.333T9.208 5q-.333.333-.333.792 0 .458.333.791.334.334.792.334ZM10 10Z"/></svg>

<svg xmlns="http://www.w3.org/2000/svg" height="20" width="20"><path d="M10.021 15.312Q10.375 15.312 10.646 15.031Q10.917 14.75 10.917 14.375V11.792H11.646Q11.812 11.792 11.938 11.667Q12.062 11.542 12.062 11.375V8.375Q12.062 7.875 11.552 7.615Q11.042 7.354 10 7.354Q8.958 7.354 8.458 7.615Q7.958 7.875 7.958 8.375V11.375Q7.958 11.542 8.083 11.667Q8.208 11.792 8.375 11.792H9.104V14.396Q9.104 14.771 9.385 15.042Q9.667 15.312 10.021 15.312ZM9.979 17.917Q8.354 17.917 6.906 17.292Q5.458 16.667 4.396 15.604Q3.333 14.542 2.708 13.094Q2.083 11.646 2.083 10Q2.083 8.354 2.708 6.906Q3.333 5.458 4.396 4.396Q5.458 3.333 6.906 2.708Q8.354 2.083 10 2.083Q11.646 2.083 13.094 2.708Q14.542 3.333 15.604 4.396Q16.667 5.458 17.292 6.906Q17.917 8.354 17.917 10.021Q17.917 11.646 17.292 13.094Q16.667 14.542 15.604 15.604Q14.542 16.667 13.094 17.292Q11.646 17.917 9.979 17.917ZM10 16.583Q12.75 16.583 14.667 14.667Q16.583 12.75 16.583 10Q16.583 7.25 14.667 5.333Q12.75 3.417 10 3.417Q7.25 3.417 5.333 5.333Q3.417 7.25 3.417 10Q3.417 12.75 5.333 14.667Q7.25 16.583 10 16.583ZM10 6.917Q10.458 6.917 10.792 6.583Q11.125 6.25 11.125 5.792Q11.125 5.333 10.792 5Q10.458 4.667 10 4.667Q9.542 4.667 9.208 5Q8.875 5.333 8.875 5.792Q8.875 6.25 9.208 6.583Q9.542 6.917 10 6.917ZM10 10Q10 10 10 10Q10 10 10 10Q10 10 10 10Q10 10 10 10Q10 10 10 10Q10 10 10 10Q10 10 10 10Q10 10 10 10Z"/></svg>
